X: 338
T:Kenny Gilles of Portnalong
% Nottingham Music Database
S:Wolfstone, Arr EF/HJF
%P:AABCCD
M:6/8
K:A
P:A
|:"A"A3 e2c|"A"efa f2e|"D"faa "A"AAA|"D"fec "E"cBB|
"A""F#m"A3 e2c|"A"efa f2e|"D"eff "A"fec|"E"BAA "A"A3:|
P:B
"A"a3 AAA|"A"cea fee|"D"faa "A"AAA|"D"fec "E"cBB|"A"a3 AAA|
"A"cea fee|"D"eff "A"fec|"E"BAA "A"A3|"A"a3 AAA|"A"cea fee|"D"faa "A"AAA|
"D"fec "E"cBB|"F#m"A3 e2c|"A"efa f2e|"D"eff "A"fec|"E"BAA "A"A3|
P:C
|:"A"AAA cBc|"A"AeA fee|"D"faa "A"AAA|"D"fec "E"cBB|
"A""F#m"AAA cBc|"A"AeA fee|"D"eff "A"fec|"E"BAA "A"A3:|
P:D
"A"c2e aga|"A"Ace fee|"D"faa "A"AAA|"D"fec "E"cBB|
"A"c2e aga|"A"Ace fee|"D"eff "A"fec|"E"BAA "A"A3|
"A"c2e aga|"A"Ace fee|"D"faa "A"AAA|"D"fec "E"cBB|
"F#m"AAA cBc|"A"AeA fee|"D"eff "A"fec|"E"BAA "A"A2||<end>
<start>
